X:1
T:Waiting Itself
T:Balmorhea Waiting Itself
%%score { 1 | 2 }
L:1/8
Q:1/4=98
M:3/4
K:B
V:1 treble nm="Piano"
V:2 bass 
V:1
"^1" z4 FD | z4 CD | z4 FD | z4 CD | z4 FD | z4 CD | z4 FD | z4 CD | z4 BF | z4 CD | z4 BF | %11
 z4 CD | z4 GD | z4 CD | z4 GD | z4 CD | z4 CD | z2 z C FD |"^19" z4 FD | z4 CD | z4 FD | z4 CD | %22
 z4 BF | z4 CD | z4 BF | z4 CD | z4 GD | z4 CD | z4 GD | z4 CD | z4 CD | C6 | %32
"^33" [Bb] [Dd]2 [Gg]2 [B,B] | [Ee] [Cc]3 [Dd] [Ee] | [Dd]2 [B,B]2 [F,F][G,G] | z2 [Cc]3 [A,A] | %36
 z2 [F,F]2 [CF]2 | z2 (3A,CF D2- | D3 z z2 | z6 | z4 z2 | z4 z2 |"^43" z4 FD | z4 CD | z4 FD | %45
 z4 CD | z4 BF | z4 CD | z4 BF | z4 CD | z4 GD | z4 CD | z4 GD | z4 CD | z4 GD | C6 | %56
"^57" [Bb] [Dd]2 [Gg]2 [B,B] | [Ee] [Cc]3 [Dd] [Ee] | [Dd]2 [B,B]2 [F,F][G,G] | z2 [Cc]3 [A,A] | %60
 z2 [F,F]2 [CF]2 | z2 (3A,CF D2- | D3 z z2 | !fermata![CFG]6 | !fermata![DF]6 | !fermata![CD]6 | %66
"^67" z2 z C cG | z2 z C FG | z2 z C cG | z2 z C FG | z2 z C cG | z2 z C FG | z2 z C cG | %73
 z2 z C FG |"^75" z2 z =C ^CD | z2 z =C ^CF | z2 z =C ^CG | z2 z =C ^CF | z2 z =C ^CF | %79
 z2 z =C ^C=F | z2 z =C ^C=F | z2 z =C ^CD |"^83" z2 CD dA | z2 CD GA | z2 CD dA | z2 CD GA | %86
 z2 CD dA | z2 CD GA | z2 CD GA | z2 CD GA |"^91" z2 z z c=A | G4 G =A | G2 E2 B,C | %93
 z2 [Ff]3 [Dd]- | %94
 [Dd]2 [B,B]2"_decel. alt oct" (3!arpeggio!!fermata![Bb]!arpeggio!!fermata![Bb]!arpeggio!!fermata![Bb] | %95
"^96" !arpeggio![Bb] [Dd]2 [Gg]2 [B,B] | [Ee] [Cc]3 [Dd] [Ee] | [Dd]2 [B,B]2 [F,F][G,G] | %98
 z2{/C} c3{/B,} A | z2{/E,} F2 [CF]2 | z2 (3A,CF D2- | D3 z z2 | !fermata![CFG]6 | !fermata![DF]6 | %104
 !fermata![CD]6 |] %105
V:2
 G,,D, G,B, z2 | G,,D, G,B, z2 | G,,D, G,B, z2 | G,,D, G,B, z2 | G,,D, G,B, z2 | G,,D, G,B, z2 | %6
 G,,D, G,B, z2 | G,,D, G,B, z2 | G,,D, G,B, z2 | G,,D, G,B, z2 | G,,D, G,B, z2 | G,,D, G,B, z2 | %12
 E,,B,, F,G, z2 | E,,B,, F,G, z2 | E,,B,, F,G, z2 | E,,B,, F,G, z2 | E,,B,, F,G, z2 | %17
 F,G, B, z z2 | G,,D, G,B, z2 | G,,D, A,B, z2 | G,,D, G,B, z2 | G,,D, A,B, z2 | G,,D, G,B, z2 | %23
 G,,D, A,B, z2 | G,,D, G,B, z2 | G,,D, A,B, z2 | E,,B,, F,G, z2 | E,,B,, F,G, z2 | E,,B,, F,G, z2 | %29
 E,,B,, F,G, z2 | E,,B,, F,G, z2 | F,,C, F,G, C,F, | G,,2 D,2 G,2 | z2 G,, D,/ G,2- G,/ | %34
 E,,B,, z E,- E,2 | E,,B,, z E, B,,2 | E, B,, z2 [F,A,] D,, | (3A,,D,F, z2 [E,G,B,]2- | %38
 [E,G,B,]3 !fermata!E,,,3 | !fermata![=A,,,E,,=A,,F,G,C]6 | !fermata![D,,G,,B,,D,F,B,]6 | %41
 !fermata![B,,,G,,C,D,G,]6 | G,,D, G,B, z2 | G,,D, A,B, z2 | G,,D, G,B, z2 | G,,D, A,B, z2 | %46
 G,,D, G,B, z2 | G,,D, A,B, z2 | G,,D, G,B, z2 | G,,D, A,B, z2 | E,,B,, F,G, z2 | E,,B,, F,G, z2 | %52
 E,,B,, F,G, z2 | E,,B,, F,G, z2 | E,,B,, F,G, z2 | F,,C, F,G, C,F, | G,,2 D,2 G,2 | %57
 z2 G,, D,/ G,2- G,/ | E,,B,, z B,,- B,,2 | E,,B,, z E, B,,2 | E, B,, z2 [F,A,] D,, | %61
 (3A,,D,F, z2 [E,G,B,]2- | [E,G,B,]3 !fermata!E,,,3 | !fermata!=A,,6 | !fermata![G,,D,B,]6 | %65
 !fermata![E,,B,,G,]6 | A,,=F, A, z z2 | A,,F, A, z z2 | A,,=F, A, z z2 | A,,F, A, z z2 | %70
 A,,=F, A, z z2 | A,,F, A, z z2 | A,,=F, A, z z2 | A,,F, A, z z2 | =C,D, F, z z2 | =C,D, F, z z2 | %76
 =C,D, F, z z2 | =C,D, F, z z2 | ^C,D, F, z z2 | C,F, G, z z2 | C,=F, G, z z2 | C,=F, G, z z2 | %82
 B,,F, z z z2 | B,,F, z z z2 | B,,F, z z z2 | B,,F, z z z2 | B,,F, z z z2 | B,,F, z z z2 | %88
 B,,F, z z z2 | B,,F, z z z2 | =A,,E, B,C z2 | =A,,E, B,C z C | =A,,E, z E, z2 | =A,,E, z E, z E, | %94
 =A,, z z2 (3!arpeggio!!fermata![B,,B,]!arpeggio!!fermata![B,,B,]!arpeggio!!fermata![B,,B,] | %95
 !arpeggio!D,2 B,2 D,2- | D,2 G,2 B,2 | E,,B,, z B,,- B,,2 | E,,B,, z E,, B,,2 | %99
 E,, B,, z2 [F,A,] D,, | (3A,,D,F, z2 [E,G,B,]2- | [E,G,B,]3 !fermata!E,,,3 | !fermata!=A,,6 | %103
 !fermata![G,,D,B,]6 | !fermata![E,,B,,G,]6 |] %105

